X:36
T:Polka fr Bleckinge
S:H O
R:Polka
O:Sweden
M:2/4
L:1/8
A:Dalarna
K:G
B/A/ |\
GB DG | BB/B/ BB/A/ | GB DF | AA/A/ AA/G/ |\
FA FA | dd/d/ dd/e/ \
|1 fe dc | BB/B/ B :|2 fd ef | g2 z2 :|*
|:Bd ba | gg/g/ gg | Bd gf | ee/e/ ee |\
FA FA dd/d/ dd/e/ \
|1 fe dc | BB/B/ Bd :|2 fd ef | g2z2 :|**
